X: 845
T: The Humors of Mullinafauna
N:"Collected by F.O'Neill"
B:O'Neill's 845
Z:Transcribed by Dan G. Petersen, dangp@post6.tele.dk
M:6/8
L:1/8
K:D
(d/e/)|fed cAG|ABA {d}cAG|F2D DED|F2A GFD|
ABA cAG|ABA A2e|fed {f}ecA|ded d2:|
(d/e/)|f2d dcd|f2g agf|e2c cdc|e2f {a}gec|
f2g afd|e2f {a}gec|fed ecA|ded d2:|


